tenants/businesswise/icons/info_fill.svg

<svg fill="none" height="24" viewBox="0 0 24 24" width="24" xmlns="http://www.w3.org/2000/svg"><path clip-rule="evenodd" d="m12 22c5.5228 0 10-4.4772 10-10 0-5.52285-4.4772-10-10-10-5.52285 0-10 4.47715-10 10 0 5.5228 4.47715 10 10 10zm1.6936-13.30645c0-.93532-.7583-1.69355-1.6936-1.69355s-1.6935.75823-1.6935 1.69355.7582 1.69355 1.6935 1.69355 1.6936-.75823 1.6936-1.69355zm.0806 9.03225c.2672 0 .4839-.2166.4839-.4839v-.9677c0-.2672-.2167-.4839-.4839-.4839h-.4839v-4.0322c0-.2673-.2166-.4839-.4838-.4839h-2.5807c-.2672 0-.48386.2166-.48386.4839v.9677c0 .2672.21666.4839.48386.4839h.4839v2.5806h-.4839c-.2672 0-.48386.2167-.48386.4839v.9677c0 .2673.21666.4839.48386.4839z" fill="#000" fill-rule="evenodd"/></svg>

<svg width="24" height="24" viewBox="0 0 24 24" fill="none" xmlns="http://www.w3.org/2000/svg">
<path fill-rule="evenodd" clip-rule="evenodd" d="M12 22C17.5228 22 22 17.5228 22 12C22 6.47715 17.5228 2 12 2C6.47715 2 2 6.47715 2 12C2 17.5228 6.47715 22 12 22ZM13.6936 8.69355C13.6936 7.75823 12.9353 7 12 7C11.0647 7 10.3065 7.75823 10.3065 8.69355C10.3065 9.62887 11.0647 10.3871 12 10.3871C12.9353 10.3871 13.6936 9.62887 13.6936 8.69355ZM13.7742 17.7258C14.0414 17.7258 14.2581 17.5092 14.2581 17.2419V16.2742C14.2581 16.007 14.0414 15.7903 13.7742 15.7903H13.2903V11.7581C13.2903 11.4908 13.0737 11.2742 12.8065 11.2742H10.2258C9.9586 11.2742 9.74194 11.4908 9.74194 11.7581V12.7258C9.74194 12.993 9.9586 13.2097 10.2258 13.2097H10.7097V15.7903H10.2258C9.9586 15.7903 9.74194 16.007 9.74194 16.2742V17.2419C9.74194 17.5092 9.9586 17.7258 10.2258 17.7258H13.7742Z" fill="black"/>
</svg>
